icons/shield_us_as.svg

<svg width="23" height="20" xmlns="http://www.w3.org/2000/svg">
 <path style="color:#000;fill:#006747" d="M 11.5,0.625 C 7.125,0.625 2.75,3.25 0.5,8.5 h 2 v 11 h 18 v -11 h 2 C 20.25,3.25 15.875,0.625 11.5,0.625 Z"/>
 <path style="color:#000;fill:#000" d="M 11.5 0.125 C 6.9250046 0.125 2.3596851 2.8925057 0.041015625 8.3027344 L -0.2578125 9 L 0.5 9 L 2 9 L 2 20 L 21 20 L 21 9 L 23.257812 9 L 22.958984 8.3027344 C 20.640315 2.8925057 16.074995 0.125 11.5 0.125 z M 11.5 1.125 C 15.456536 1.125 19.366361 3.4348462 21.626953 8 L 21 8 L 2 8 L 1.3730469 8 C 3.6336388 3.4348462 7.5434638 1.125 11.5 1.125 z M 3 9 L 20 9 L 20 19 L 3 19 L 3 9 z"/>
</svg>

<svg width="23" height="20" xmlns="http://www.w3.org/2000/svg"><path style="color:#000;fill:#006747" d="M11.5.625C7.125.625 2.75 3.25.5 8.5h2v11h18v-11h2C20.25 3.25 15.875.625 11.5.625Z"/><path style="color:#000;fill:#000" d="M11.5.125C6.925.125 2.36 2.893.041 8.303L-.258 9H2v11h19V9h2.258l-.299-.697C20.64 2.893 16.075.125 11.5.125zm0 1c3.957 0 7.866 2.31 10.127 6.875H1.373c2.26-4.565 6.17-6.875 10.127-6.875zM3 9h17v10H3V9z"/></svg>
